svgs/sharp-light/hand-holding-hand.svg

<svg xmlns="http://www.w3.org/2000/svg" viewBox="0 0 576 512"><!--! Font Awesome Pro 6.6.0 by @fontawesome - https://fontawesome.com License - https://fontawesome.com/license (Commercial License) Copyright 2024 Fonticons, Inc. --><path d="M404.8 240l-4.8 0-208 0-16 0 0-16 0-64-.2 0L72.2 221.7l-13.5 8-8.3-13.3-40-64L2 139l13.5-8.5 152-96 3.9-2.5 4.6 0 384 0 16 0 0 32-16 0L180.6 64 46 149l23.3 37.2 94-56L167 128l4.4 0 4.6 0 16 0 64 0 16 0 48 0 16 0 0 32-16 0-48 0-16 0-48 0 0 48 187.2 0 92-61.3 4-2.7 4.8 0 64 0 16 0 0 32-16 0-59.2 0-92 61.3-4 2.7zM171.2 272l4.8 0 208 0 16 0 0 16 0 64 .2 0 103.6-61.7 13.5-8 8.3 13.3 40 64L574 373l-13.5 8.5-152 96-3.9 2.5-4.6 0L16 480 0 480l0-32 16 0 379.4 0L530 363l-23.3-37.2-94 56L409 384l-4.4 0-4.6 0-16 0-64 0-16 0-48 0-16 0 0-32 16 0 48 0 16 0 48 0 0-48-187.2 0-92 61.3-4 2.7L80 368l-64 0L0 368l0-32 16 0 59.2 0 92-61.3 4-2.7z"/></svg>

<svg xmlns="http://www.w3.org/2000/svg" viewBox="0 0 576 512"><!--! Font Awesome Pro 6.4.0 by @fontawesome - https://fontawesome.com License - https://fontawesome.com/license (Commercial License) Copyright 2023 Fonticons, Inc. --><path d="M404.8 240H400 192 176V224 160h-.2L72.2 221.7l-13.5 8-8.3-13.3-40-64L2 139l13.5-8.5 152-96 3.9-2.5H176 560h16V64H560 180.6L46 149l23.3 37.2 94-56L167 128h4.4H176h16 64 16 48 16v32H320 272 256 208v48H395.2l92-61.3 4-2.7H496h64 16v32H560 500.8l-92 61.3-4 2.7zM171.2 272H176 384h16v16 64h.2l103.6-61.7 13.5-8 8.3 13.3 40 64L574 373l-13.5 8.5-152 96-3.9 2.5H400 16 0V448H16 395.4L530 363l-23.3-37.2-94 56L409 384h-4.4H400 384 320 304 256 240V352h16 48 16 48V304H180.8l-92 61.3-4 2.7H80 16 0V336H16 75.2l92-61.3 4-2.7z"/></svg>
